applets/maintained/animal-farm/icons/lemmling-cartoon-goat.svg

<?xml version="1.0" encoding="UTF-8" standalone="no"?>
<!-- Created with Inkscape (http://www.inkscape.org/) -->

<svg
   xmlns:dc="http://purl.org/dc/elements/1.1/"
   xmlns:cc="http://creativecommons.org/ns#"
   xmlns:rdf="http://www.w3.org/1999/02/22-rdf-syntax-ns#"
   xmlns:svg="http://www.w3.org/2000/svg"
   xmlns="http://www.w3.org/2000/svg"
   xmlns:sodipodi="http://sodipodi.sourceforge.net/DTD/sodipodi-0.dtd"
   xmlns:inkscape="http://www.inkscape.org/namespaces/inkscape"
   version="1.0"
   width="291.28"
   height="291.28"
   id="svg2"
   inkscape:version="0.47 r22583"
   sodipodi:docname="lemmling-cartoon-goat.svg">
  <metadata
     id="metadata3163">
    <rdf:RDF>
      <cc:Work
         rdf:about="">
        <dc:format>image/svg+xml</dc:format>
        <dc:type
           rdf:resource="http://purl.org/dc/dcmitype/StillImage" />
      </cc:Work>
    </rdf:RDF>
  </metadata>
  <sodipodi:namedview
     pagecolor="#ffffff"
     bordercolor="#666666"
     borderopacity="1"
     objecttolerance="10"
     gridtolerance="10"
     guidetolerance="10"
     inkscape:pageopacity="0"
     inkscape:pageshadow="2"
     inkscape:window-width="1280"
     inkscape:window-height="923"
     id="namedview3161"
     showgrid="false"
     inkscape:zoom="0.81021698"
     inkscape:cx="124.09968"
     inkscape:cy="145.64"
     inkscape:window-x="0"
     inkscape:window-y="24"
     inkscape:window-maximized="1"
     inkscape:current-layer="svg2" />
  <defs
     id="defs4" />
  <g
     transform="translate(-207.04121,-391.38701)"
     id="layer1">
    <path
       d="m 441.29462,560.70587 c 0.0148,49.72803 -40.29355,90.04842 -90.02158,90.04842 -49.72803,0 -90.0364,-40.32039 -90.02158,-90.04842 -0.0148,-49.72803 40.29355,-90.04842 90.02158,-90.04842 49.72803,0 90.0364,40.32039 90.02158,90.04842 z"
       transform="matrix(1.2167832,0,0,1.2167832,-76.150099,-121.55162)"
       id="path2383"
       style="fill:#c8beb7;fill-opacity:1;fill-rule:nonzero;stroke:#000000;stroke-width:3.28735638;stroke-linecap:round;stroke-linejoin:round;stroke-miterlimit:4;stroke-opacity:1;stroke-dasharray:none" />
    <path
       d="m 454.1875,523.125 c 0.0768,1.68161 0.125,3.39329 0.125,5.09375 0,60.46428 -49.06696,109.53125 -109.53125,109.53125 -47.26217,0 -87.5912,-29.99927 -102.9375,-71.96875 2.65351,58.11219 50.67363,104.46875 109.4375,104.46875 60.46429,0 109.53125,-49.06697 109.53125,-109.53125 0,-13.20218 -2.33815,-25.87003 -6.625,-37.59375 z"
       id="path3221"
       style="fill:#000000;fill-opacity:0.31372549;fill-rule:nonzero;stroke:none" />
    <path
       d="m 359.45331,671.27549 c 0,9.09078 14.66533,9.38135 32.73511,9.38135 18.06978,0 32.73512,0.69349 32.73512,-9.38135 0,-17.71594 -14.66534,-32.0941 -32.73512,-32.0941 -18.06978,0 -32.73511,14.37816 -32.73511,32.0941 z"
       id="path3172"
       style="fill:#6c5d53;fill-opacity:1;fill-rule:nonzero;stroke:#000000;stroke-width:3.99999976;stroke-linecap:round;stroke-linejoin:round;stroke-miterlimit:4;stroke-opacity:1" />
    <path
       d="m 435.90825,525.42049 c 0,45.17448 -55.12119,81.83781 -81.8378,81.83781 -25.71825,0 -81.8378,-36.66333 -81.8378,-81.83781 0,-45.17446 24.62503,-81.8378 81.8378,-81.8378 57.22259,0 81.8378,36.66334 81.8378,81.8378 z"
       id="path3236"
       style="fill:#000000;fill-opacity:0.31372549;fill-rule:nonzero;stroke:none" />
    <path
       d="m 318.63052,579.05039 c 7.75137,17.93332 11.3629,23.32705 11.13309,33.58756 -0.10468,4.67369 9.18524,-7.63631 9.82947,-13.78857 -0.47321,8.8856 1.19858,11.31371 2.18153,20.50609 0.98294,9.19239 4.24378,25.14253 5.19057,21.56676 1.9659,-7.42462 2.88621,-22.81881 8.27733,-27.57716 2.43986,9.19238 14.91463,24.62684 12.85602,18.73833 -4.99831,-14.29733 -6.8361,-21.15135 -2.45737,-30.05204 7.83496,9.51421 12.31728,13.45246 10.81243,8.13173 -2.5393,-8.97828 1.07543,-21.31151 7.65775,-26.51651 8.35547,-6.60713 -65.48082,-4.94975 -65.48082,-4.59619 z"
       id="path3203"
       style="fill:#6c5d53;fill-opacity:1;fill-rule:evenodd;stroke:#000000;stroke-width:4;stroke-linecap:butt;stroke-linejoin:round;stroke-miterlimit:4;stroke-opacity:1;stroke-dasharray:none" />
    <path
       d="m 404.77885,680.0559 c 0,-16.36756 -9.44283,-26.43991 -9.44283,-26.43991 0,0 3.77713,13.84948 3.14761,26.43991 l 6.29522,0 z"
       id="path3174"
       style="fill:#000000;fill-opacity:0.31372549;fill-rule:evenodd;stroke:#000000;stroke-width:4;stroke-linecap:butt;stroke-linejoin:round;stroke-miterlimit:4;stroke-opacity:1;stroke-dasharray:none" />
    <path
       d="m 108.875,46.34375 c -30.12925,0.610589 -50.931674,11.653269 -63.625,28.75 -24.06444,-2.587792 -44.0625,23.625 -44.0625,23.625 0,2e-6 18.89113,9.44632 32.0625,1.53125 -2.399229,8.71172 -3.5625,18.10595 -3.5625,27.90625 0,45.17448 56.125502,81.84375 81.84375,81.84375 26.71661,0 81.84375,-36.66927 81.84375,-81.84375 0,-9.8003 -1.16389,-19.19453 -3.5625,-27.90625 13.17137,7.91507 32.03125,-1.531251 32.03125,-1.53125 0,0 -19.97122,-26.20456 -44.03125,-23.625 -13.06166,-17.594988 -34.70768,-28.75 -66.28125,-28.75 -0.89395,0 -1.77818,-0.01779 -2.65625,0 z"
       transform="translate(239.73628,384.06586)"
       id="path3155"
       style="fill:#c8beb7;fill-opacity:1;fill-rule:nonzero;stroke:#000000;stroke-width:4;stroke-linecap:round;stroke-linejoin:round;stroke-miterlimit:4;stroke-opacity:1" />
    <path
       d="m 441.29462,560.70587 c 0.0148,49.72803 -40.29355,90.04842 -90.02158,90.04842 -49.72803,0 -90.0364,-40.32039 -90.02158,-90.04842 -0.0148,-49.72803 40.29355,-90.04842 90.02158,-90.04842 49.72803,0 90.0364,40.32039 90.02158,90.04842 z"
       transform="matrix(0.2517482,0,0,0.2517482,236.54837,359.07889)"
       id="path3157"
       style="fill:#ffffff;fill-opacity:1;fill-rule:nonzero;stroke:#000000;stroke-width:15.88889027;stroke-linecap:round;stroke-linejoin:round;stroke-miterlimit:4;stroke-opacity:1;stroke-dasharray:none" />
    <path
       d="m 441.29462,560.70587 c 0.0148,49.72803 -40.29355,90.04842 -90.02158,90.04842 -49.72803,0 -90.0364,-40.32039 -90.02158,-90.04842 -0.0148,-49.72803 40.29355,-90.04842 90.02158,-90.04842 49.72803,0 90.0364,40.32039 90.02158,90.04842 z"
       transform="matrix(0.2517482,0,0,0.2517482,289.28057,359.07889)"
       id="path3159"
       style="fill:#ffffff;fill-opacity:1;fill-rule:nonzero;stroke:#000000;stroke-width:15.88889027;stroke-linecap:round;stroke-linejoin:round;stroke-miterlimit:4;stroke-opacity:1;stroke-dasharray:none" />
    <path
       d="m 441.29462,560.70587 c 0.0148,49.72803 -40.29355,90.04842 -90.02158,90.04842 -49.72803,0 -90.0364,-40.32039 -90.02158,-90.04842 -0.0148,-49.72803 40.29355,-90.04842 90.02158,-90.04842 49.72803,0 90.0364,40.32039 90.02158,90.04842 z"
       transform="matrix(0.08391603,0,0,0.08391603,343.19932,457.18337)"
       id="path3161"
       style="fill:#000000;fill-opacity:1;fill-rule:nonzero;stroke:none" />
    <path
       d="m 441.29462,560.70587 c 0.0148,49.72803 -40.29355,90.04842 -90.02158,90.04842 -49.72803,0 -90.0364,-40.32039 -90.02158,-90.04842 -0.0148,-49.72803 40.29355,-90.04842 90.02158,-90.04842 49.72803,0 90.0364,40.32039 90.02158,90.04842 z"
       transform="matrix(0.08391603,0,0,0.08391603,301.16898,457.18337)"
       id="path3163"
       style="fill:#000000;fill-opacity:1;fill-rule:nonzero;stroke:none" />
    <path
       d="m 372.76056,441.61916 c -1.99315,-10.39388 12.5831,-36.41396 42.69525,-46.11812 20.71648,-6.67624 55.97898,1.23193 59.32608,41.22995 -13.47984,-23.04376 -37.37786,-28.54124 -48.70585,-23.05452 -22.73225,11.01038 -12.4799,34.47541 -23.36255,40.65745 -10.13088,5.75499 -27.88681,-1.94037 -29.95293,-12.71476 z"
       id="path3179"
       style="fill:#6c5d53;fill-opacity:1;fill-rule:evenodd;stroke:#000000;stroke-width:4;stroke-linecap:butt;stroke-linejoin:round;stroke-miterlimit:4;stroke-opacity:1;stroke-dasharray:none" />
    <path
       d="M 190.09375,101.34375 188.21875,104 c 0.24888,3.07548 0.34375,6.20264 0.34375,9.375 0,45.17449 -55.12714,81.84375 -81.84375,81.84375 -20.705808,2e-5 -61.09673,-23.75565 -76.0625,-56.59375 7.61581,40.24628 57.1719,71.37501 80.875,71.375 26.71661,0 81.84375,-36.6693 81.84375,-81.84375 0,-9.39155 -1.07538,-18.41026 -3.28125,-26.8125 z"
       transform="translate(239.73628,384.06586)"
       id="path3231"
       style="fill:#000000;fill-opacity:0.31372549;fill-rule:nonzero;stroke:none" />
    <path
       d="m 344.4555,671.27549 c 0,9.09078 -14.66533,9.38135 -32.73511,9.38135 -18.06978,0 -32.73512,0.69349 -32.73512,-9.38135 0,-17.71594 14.66534,-32.0941 32.73512,-32.0941 18.06978,0 32.73511,14.37816 32.73511,32.0941 z"
       id="path3329"
       style="fill:#6c5d53;fill-opacity:1;fill-rule:nonzero;stroke:#000000;stroke-width:3.99999976;stroke-linecap:round;stroke-linejoin:round;stroke-miterlimit:4;stroke-opacity:1" />
    <path
       d="m 299.12996,680.0559 c 0,-16.36756 9.44283,-26.43991 9.44283,-26.43991 0,0 -3.77713,13.84948 -3.14761,26.43991 l -6.29522,0 z"
       id="path3331"
       style="fill:#000000;fill-opacity:0.31372549;fill-rule:evenodd;stroke:#000000;stroke-width:4;stroke-linecap:butt;stroke-linejoin:round;stroke-miterlimit:4;stroke-opacity:1;stroke-dasharray:none" />
    <path
       d="m 367.86847,564.86692 c -2.29272,3.97309 -6.50025,5.8386 -9.39677,4.16629 -2.89654,-1.67231 -3.38472,-6.2489 -1.09029,-10.22099 2.29273,-3.9731 6.50026,-5.83861 9.39679,-4.1663 2.89653,1.67231 3.38471,6.2489 1.09027,10.221 z"
       id="path2398"
       style="fill:#000000;fill-opacity:1;fill-rule:nonzero;stroke:none" />
    <path
       d="m 335.13142,564.86692 c 2.29272,3.97309 6.50025,5.8386 9.39677,4.16629 2.89654,-1.67231 3.38472,-6.2489 1.09029,-10.22099 -2.29273,-3.9731 -6.50026,-5.83861 -9.39679,-4.1663 -2.89653,1.67231 -3.38471,6.2489 -1.09027,10.221 z"
       id="path2412"
       style="fill:#000000;fill-opacity:1;fill-rule:nonzero;stroke:none" />
    <path
       d="m 332.60185,441.61916 c 1.99315,-10.39388 -12.5831,-36.41396 -42.69525,-46.11812 -20.71648,-6.67624 -55.97898,1.23193 -59.32608,41.22995 13.47984,-23.04376 37.37786,-28.54124 48.70585,-23.05452 22.73225,11.01038 12.4799,34.47541 23.36255,40.65745 10.13088,5.75499 27.88681,-1.94037 29.95293,-12.71476 z"
       id="path3173"
       style="fill:#6c5d53;fill-opacity:1;fill-rule:evenodd;stroke:#000000;stroke-width:4;stroke-linecap:butt;stroke-linejoin:round;stroke-miterlimit:4;stroke-opacity:1;stroke-dasharray:none" />
  </g>
</svg>

<?xml version="1.0" encoding="UTF-8" standalone="no"?>
<!-- Created with Inkscape (http://www.inkscape.org/) -->
<svg
   xmlns:svg="http://www.w3.org/2000/svg"
   xmlns="http://www.w3.org/2000/svg"
   version="1.0"
   width="248.20137"
   height="291.28238"
   id="svg2">
  <defs
     id="defs4" />
  <g
     transform="translate(-228.58052,-391.38463)"
     id="layer1">
    <path
       d="M 441.29462,560.70587 C 441.30944,610.4339 401.00107,650.75429 351.27304,650.75429 C 301.54501,650.75429 261.23664,610.4339 261.25146,560.70587 C 261.23664,510.97784 301.54501,470.65745 351.27304,470.65745 C 401.00107,470.65745 441.30944,510.97784 441.29462,560.70587 z"
       transform="matrix(1.2167832,0,0,1.2167832,-76.150099,-121.55162)"
       id="path2383"
       style="opacity:1;fill:#c8beb7;fill-opacity:1;fill-rule:nonzero;stroke:#000000;stroke-width:3.28735638;stroke-linecap:round;stroke-linejoin:round;stroke-miterlimit:4;stroke-dasharray:none;stroke-opacity:1" />
    <path
       d="M 454.1875,523.125 C 454.26429,524.80661 454.3125,526.51829 454.3125,528.21875 C 454.3125,588.68303 405.24554,637.75 344.78125,637.75 C 297.51908,637.75 257.19005,607.75073 241.84375,565.78125 C 244.49726,623.89344 292.51738,670.25 351.28125,670.25 C 411.74554,670.25 460.8125,621.18303 460.8125,560.71875 C 460.8125,547.51657 458.47435,534.84872 454.1875,523.125 z"
       id="path3221"
       style="opacity:1;fill:#000000;fill-opacity:0.31372549;fill-rule:nonzero;stroke:none;stroke-width:4;stroke-linecap:round;stroke-linejoin:round;stroke-miterlimit:4;stroke-dasharray:none;stroke-opacity:1" />
    <path
       d="M 359.45331,671.27549 C 359.45331,680.36627 374.11864,680.65684 392.18842,680.65684 C 410.2582,680.65684 424.92354,681.35033 424.92354,671.27549 C 424.92354,653.55955 410.2582,639.18139 392.18842,639.18139 C 374.11864,639.18139 359.45331,653.55955 359.45331,671.27549 z"
       id="path3172"
       style="fill:#6c5d53;fill-opacity:1;fill-rule:nonzero;stroke:#000000;stroke-width:3.99999976;stroke-linecap:round;stroke-linejoin:round;stroke-miterlimit:4;stroke-opacity:1" />
    <path
       d="M 435.90825,525.42049 C 435.90825,570.59497 380.78706,607.2583 354.07045,607.2583 C 328.3522,607.2583 272.23265,570.59497 272.23265,525.42049 C 272.23265,480.24603 296.85768,443.58269 354.07045,443.58269 C 411.29304,443.58269 435.90825,480.24603 435.90825,525.42049 z"
       id="path3236"
       style="fill:#000000;fill-opacity:0.31372549;fill-rule:nonzero;stroke:none;stroke-width:4;stroke-linecap:round;stroke-linejoin:round;stroke-miterlimit:4;stroke-opacity:1" />
    <path
       d="M 318.63052,579.05039 C 326.38189,596.98371 329.99342,602.37744 329.76361,612.63795 C 329.65893,617.31164 338.94885,605.00164 339.59308,598.84938 C 339.11987,607.73498 340.79166,610.16309 341.77461,619.35547 C 342.75755,628.54786 346.01839,644.498 346.96518,640.92223 C 348.93108,633.49761 349.85139,618.10342 355.24251,613.34507 C 357.68237,622.53745 370.15714,637.97191 368.09853,632.0834 C 363.10022,617.78607 361.26243,610.93205 365.64116,602.03136 C 373.47612,611.54557 377.95844,615.48382 376.45359,610.16309 C 373.91429,601.18481 377.52902,588.85158 384.11134,583.64658 C 392.46681,577.03945 318.63052,578.69683 318.63052,579.05039 z"
       id="path3203"
       style="fill:#6c5d53;fill-opacity:1;fill-rule:evenodd;stroke:#000000;stroke-width:4;stroke-linecap:butt;stroke-linejoin:round;stroke-miterlimit:4;stroke-dasharray:none;stroke-opacity:1" />
    <path
       d="M 404.77885,680.0559 C 404.77885,663.68834 395.33602,653.61599 395.33602,653.61599 C 395.33602,653.61599 399.11315,667.46547 398.48363,680.0559 L 404.77885,680.0559 z"
       id="path3174"
       style="fill:#000000;fill-opacity:0.31372549;fill-rule:evenodd;stroke:#000000;stroke-width:4;stroke-linecap:butt;stroke-linejoin:round;stroke-miterlimit:4;stroke-dasharray:none;stroke-opacity:1" />
    <path
       d="M 108.875,46.34375 C 78.74575,46.954339 57.943326,57.997019 45.25,75.09375 C 21.18556,72.505958 1.1875,98.71875 1.1875,98.71875 C 1.1875,98.718752 20.07863,108.16507 33.25,100.25 C 30.850771,108.96172 29.6875,118.35595 29.6875,128.15625 C 29.6875,173.33073 85.813002,210 111.53125,210 C 138.24786,210 193.375,173.33073 193.375,128.15625 C 193.375,118.35595 192.21111,108.96172 189.8125,100.25 C 202.98387,108.16507 221.84375,98.718749 221.84375,98.71875 C 221.84375,98.71875 201.87253,72.51419 177.8125,75.09375 C 164.75084,57.498762 143.10482,46.34375 111.53125,46.34375 C 110.6373,46.34375 109.75307,46.325955 108.875,46.34375 z"
       transform="translate(239.73628,384.06586)"
       id="path3155"
       style="fill:#c8beb7;fill-opacity:1;fill-rule:nonzero;stroke:#000000;stroke-width:4;stroke-linecap:round;stroke-linejoin:round;stroke-miterlimit:4;stroke-opacity:1" />
    <path
       d="M 441.29462,560.70587 C 441.30944,610.4339 401.00107,650.75429 351.27304,650.75429 C 301.54501,650.75429 261.23664,610.4339 261.25146,560.70587 C 261.23664,510.97784 301.54501,470.65745 351.27304,470.65745 C 401.00107,470.65745 441.30944,510.97784 441.29462,560.70587 z"
       transform="matrix(0.2517482,0,0,0.2517482,236.54837,359.07889)"
       id="path3157"
       style="opacity:1;fill:#ffffff;fill-opacity:1;fill-rule:nonzero;stroke:#000000;stroke-width:15.88889027;stroke-linecap:round;stroke-linejoin:round;stroke-miterlimit:4;stroke-dasharray:none;stroke-opacity:1" />
    <path
       d="M 441.29462,560.70587 C 441.30944,610.4339 401.00107,650.75429 351.27304,650.75429 C 301.54501,650.75429 261.23664,610.4339 261.25146,560.70587 C 261.23664,510.97784 301.54501,470.65745 351.27304,470.65745 C 401.00107,470.65745 441.30944,510.97784 441.29462,560.70587 z"
       transform="matrix(0.2517482,0,0,0.2517482,289.28057,359.07889)"
       id="path3159"
       style="opacity:1;fill:#ffffff;fill-opacity:1;fill-rule:nonzero;stroke:#000000;stroke-width:15.88889027;stroke-linecap:round;stroke-linejoin:round;stroke-miterlimit:4;stroke-dasharray:none;stroke-opacity:1" />
    <path
       d="M 441.29462,560.70587 C 441.30944,610.4339 401.00107,650.75429 351.27304,650.75429 C 301.54501,650.75429 261.23664,610.4339 261.25146,560.70587 C 261.23664,510.97784 301.54501,470.65745 351.27304,470.65745 C 401.00107,470.65745 441.30944,510.97784 441.29462,560.70587 z"
       transform="matrix(8.3916033e-2,0,0,8.3916033e-2,343.19932,457.18337)"
       id="path3161"
       style="opacity:1;fill:#000000;fill-opacity:1;fill-rule:nonzero;stroke:none;stroke-width:47.66669083;stroke-linecap:round;stroke-linejoin:round;stroke-miterlimit:4;stroke-dasharray:none;stroke-opacity:1" />
    <path
       d="M 441.29462,560.70587 C 441.30944,610.4339 401.00107,650.75429 351.27304,650.75429 C 301.54501,650.75429 261.23664,610.4339 261.25146,560.70587 C 261.23664,510.97784 301.54501,470.65745 351.27304,470.65745 C 401.00107,470.65745 441.30944,510.97784 441.29462,560.70587 z"
       transform="matrix(8.3916033e-2,0,0,8.3916033e-2,301.16898,457.18337)"
       id="path3163"
       style="opacity:1;fill:#000000;fill-opacity:1;fill-rule:nonzero;stroke:none;stroke-width:47.66669083;stroke-linecap:round;stroke-linejoin:round;stroke-miterlimit:4;stroke-dasharray:none;stroke-opacity:1" />
    <path
       d="M 372.76056,441.61916 C 370.76741,431.22528 385.34366,405.2052 415.45581,395.50104 C 436.17229,388.8248 471.43479,396.73297 474.78189,436.73099 C 461.30205,413.68723 437.40403,408.18975 426.07604,413.67647 C 403.34379,424.68685 413.59614,448.15188 402.71349,454.33392 C 392.58261,460.08891 374.82668,452.39355 372.76056,441.61916 z"
       id="path3179"
       style="fill:#6c5d53;fill-opacity:1;fill-rule:evenodd;stroke:#000000;stroke-width:4;stroke-linecap:butt;stroke-linejoin:round;stroke-miterlimit:4;stroke-dasharray:none;stroke-opacity:1" />
    <path
       d="M 190.09375,101.34375 L 188.21875,104 C 188.46763,107.07548 188.5625,110.20264 188.5625,113.375 C 188.5625,158.54949 133.43536,195.21875 106.71875,195.21875 C 86.012942,195.21877 45.62202,171.4631 30.65625,138.625 C 38.27206,178.87128 87.82815,210.00001 111.53125,210 C 138.24786,210 193.375,173.3307 193.375,128.15625 C 193.375,118.7647 192.29962,109.74599 190.09375,101.34375 z"
       transform="translate(239.73628,384.06586)"
       id="path3231"
       style="fill:#000000;fill-opacity:0.31372549;fill-rule:nonzero;stroke:none;stroke-width:4;stroke-linecap:round;stroke-linejoin:round;stroke-miterlimit:4;stroke-opacity:1" />
    <path
       d="M 344.4555,671.27549 C 344.4555,680.36627 329.79017,680.65684 311.72039,680.65684 C 293.65061,680.65684 278.98527,681.35033 278.98527,671.27549 C 278.98527,653.55955 293.65061,639.18139 311.72039,639.18139 C 329.79017,639.18139 344.4555,653.55955 344.4555,671.27549 z"
       id="path3329"
       style="fill:#6c5d53;fill-opacity:1;fill-rule:nonzero;stroke:#000000;stroke-width:3.99999976;stroke-linecap:round;stroke-linejoin:round;stroke-miterlimit:4;stroke-opacity:1" />
    <path
       d="M 299.12996,680.0559 C 299.12996,663.68834 308.57279,653.61599 308.57279,653.61599 C 308.57279,653.61599 304.79566,667.46547 305.42518,680.0559 L 299.12996,680.0559 z"
       id="path3331"
       style="fill:#000000;fill-opacity:0.31372549;fill-rule:evenodd;stroke:#000000;stroke-width:4;stroke-linecap:butt;stroke-linejoin:round;stroke-miterlimit:4;stroke-dasharray:none;stroke-opacity:1" />
    <path
       d="M 367.86847,564.86692 C 365.57575,568.84001 361.36822,570.70552 358.4717,569.03321 C 355.57516,567.3609 355.08698,562.78431 357.38141,558.81222 C 359.67414,554.83912 363.88167,552.97361 366.7782,554.64592 C 369.67473,556.31823 370.16291,560.89482 367.86847,564.86692 z"
       id="path2398"
       style="opacity:1;fill:#000000;fill-opacity:1;fill-rule:nonzero;stroke:none;stroke-width:47.66669083;stroke-linecap:round;stroke-linejoin:round;stroke-miterlimit:4;stroke-dasharray:none;stroke-opacity:1" />
    <path
       d="M 335.13142,564.86692 C 337.42414,568.84001 341.63167,570.70552 344.52819,569.03321 C 347.42473,567.3609 347.91291,562.78431 345.61848,558.81222 C 343.32575,554.83912 339.11822,552.97361 336.22169,554.64592 C 333.32516,556.31823 332.83698,560.89482 335.13142,564.86692 z"
       id="path2412"
       style="opacity:1;fill:#000000;fill-opacity:1;fill-rule:nonzero;stroke:none;stroke-width:47.66669083;stroke-linecap:round;stroke-linejoin:round;stroke-miterlimit:4;stroke-dasharray:none;stroke-opacity:1" />
    <path
       d="M 332.60185,441.61916 C 334.595,431.22528 320.01875,405.2052 289.9066,395.50104 C 269.19012,388.8248 233.92762,396.73297 230.58052,436.73099 C 244.06036,413.68723 267.95838,408.18975 279.28637,413.67647 C 302.01862,424.68685 291.76627,448.15188 302.64892,454.33392 C 312.7798,460.08891 330.53573,452.39355 332.60185,441.61916 z"
       id="path3173"
       style="fill:#6c5d53;fill-opacity:1;fill-rule:evenodd;stroke:#000000;stroke-width:4;stroke-linecap:butt;stroke-linejoin:round;stroke-miterlimit:4;stroke-dasharray:none;stroke-opacity:1" />
  </g>
</svg>
